coreui/free/cil-file.svg

<svg viewBox="0 0 512 512" xmlns="http://www.w3.org/2000/svg"><path d="M334.627 16H48v480h424V153.373Zm105.37 150.627v1.37h-120v-120h1.37ZM79.99 464V48h208v152h152v264Z"/></svg>

<svg xmlns="http://www.w3.org/2000/svg" viewBox="0 0 512 512">
  <path fill="var(--ci-primary-color, currentColor)" d="M334.627,16H48V496H472V153.373ZM440,166.627V168H320V48h1.373ZM80,464V48H288V200H440V464Z" class="ci-primary"/>
</svg>
